utils/icons-generator/ic_media_movie.svg

<?xml version="1.0" encoding="UTF-8"?>
<svg xmlns="http://www.w3.org/2000/svg" xmlns:xlink="http://www.w3.org/1999/xlink" width="1000pt" height="1000pt" viewBox="0 0 1000 1000" version="1.1">
<g id="surface1">
<path style=" stroke:none;fill-rule:nonzero;fill:rgb(0%,0%,0%);fill-opacity:1;" d="M 750 166.667969 L 833.332031 333.332031 L 708.332031 333.332031 L 625 166.667969 L 541.667969 166.667969 L 625 333.332031 L 500 333.332031 L 416.667969 166.667969 L 333.332031 166.667969 L 416.667969 333.332031 L 291.667969 333.332031 L 208.332031 166.667969 L 166.667969 166.667969 C 120.832031 166.667969 83.75 204.167969 83.75 250 L 83.332031 750 C 83.332031 795.832031 120.832031 833.332031 166.667969 833.332031 L 833.332031 833.332031 C 879.167969 833.332031 916.667969 795.832031 916.667969 750 L 916.667969 166.667969 Z M 750 166.667969 "/>
</g>
</svg>

<?xml version="1.0" encoding="UTF-8" standalone="no"?>
<svg
   xmlns:dc="http://purl.org/dc/elements/1.1/"
   xmlns:cc="http://creativecommons.org/ns#"
   xmlns:rdf="http://www.w3.org/1999/02/22-rdf-syntax-ns#"
   xmlns:svg="http://www.w3.org/2000/svg"
   xmlns="http://www.w3.org/2000/svg"
   xmlns:sodipodi="http://sodipodi.sourceforge.net/DTD/sodipodi-0.dtd"
   xmlns:inkscape="http://www.inkscape.org/namespaces/inkscape"
   width="1000pt"
   height="1000pt"
   viewBox="0 0 1000 1000"
   version="1.1"
   id="svg759"
   sodipodi:docname="ic_media_movie.svg"
   inkscape:version="0.92.4 (5da689c313, 2019-01-14)">
  <metadata
     id="metadata765">
    <rdf:RDF>
      <cc:Work
         rdf:about="">
        <dc:format>image/svg+xml</dc:format>
        <dc:type
           rdf:resource="http://purl.org/dc/dcmitype/StillImage" />
      </cc:Work>
    </rdf:RDF>
  </metadata>
  <defs
     id="defs763" />
  <sodipodi:namedview
     pagecolor="#ffffff"
     bordercolor="#666666"
     borderopacity="1"
     objecttolerance="10"
     gridtolerance="10"
     guidetolerance="10"
     inkscape:pageopacity="0"
     inkscape:pageshadow="2"
     inkscape:window-width="2560"
     inkscape:window-height="1346"
     id="namedview761"
     showgrid="false"
     inkscape:zoom="0.177"
     inkscape:cx="666.66667"
     inkscape:cy="666.66667"
     inkscape:window-x="-11"
     inkscape:window-y="-11"
     inkscape:window-maximized="1"
     inkscape:current-layer="svg759" />
  <g
     id="surface1"
     transform="matrix(1.1969962,0,0,1.1969962,-98.498116,-98.498115)">
    <path
       style="fill:#000000;fill-opacity:1;fill-rule:nonzero;stroke:none"
       d="m 750,166.66797 83.33203,166.66406 h -125 L 625,166.66797 H 541.66797 L 625,333.33203 H 500 L 416.66797,166.66797 h -83.33594 l 83.33594,166.66406 h -125 L 208.33203,166.66797 h -41.66406 c -45.83594,0 -82.91797,37.5 -82.91797,83.33203 l -0.417969,500 c 0,45.83203 37.499999,83.33203 83.335939,83.33203 h 666.66406 c 45.83594,0 83.33594,-37.5 83.33594,-83.33203 V 166.66797 Z m 0,0"
       id="path756"
       inkscape:connector-curvature="0" />
  </g>
</svg>
